src/icons/rss.svg

<svg width="16" height="16" viewBox="0 0 16 16" fill="none" xmlns="http://www.w3.org/2000/svg">
<path fill-rule="evenodd" clip-rule="evenodd" d="M5 13H3V11C4.11 11 5 11.89 5 13ZM3 3V4C5.38695 4 7.67613 4.94821 9.36396 6.63604C11.0518 8.32387 12 10.6131 12 13H13C13 7.48 8.52 3 3 3ZM3 7V8C5.75 8 8 10.25 8 13H9C9 9.69 6.31 7 3 7Z" fill="white"/>
</svg>

<svg width="16" height="16" xmlns="http://www.w3.org/2000/svg"><path fill-rule="evenodd" clip-rule="evenodd" d="M5 13H3v-2c1.11 0 2 .89 2 2zM3 3v1a9 9 0 0 1 9 9h1C13 7.48 8.52 3 3 3zm0 4v1c2.75 0 5 2.25 5 5h1c0-3.31-2.69-6-6-6z"/></svg>
